X:1
T:Lafayette, CM
T:Lafayette, CM
T:John Bunyan Herbert, 1890
T:Public Domain Courtesy of the Cyber Hymnal™
C:John Bunyan Herbert, 1890
Z:Public Domain
Z:Courtesy of the Cyber Hymnal™
%%score ( 1 2 ) ( 3 4 )
L:1/8
Q:1/4=110
M:4/4
K:F
V:1 treble 
V:2 treble 
V:3 bass 
V:4 bass 
V:1
 [Ac]2 | [Ac]3 [GB] [FA]2 [FA]2 | [FA]3 [CG] [CF]2 (FE) | [B,D]2 [DF]2 [DB]2 [Fd]2 | [Fc]6 [Fc]2 | %5
 [Ec]3 [EB] [FA]2 [DA]2 | [^CA]3 [CG] [DF]2 [Fd]2 | [Fc]2 [FA]2 [EG]3 F | F6 |] %9
V:2
 x2 | x8 | x6 C2 | x8 | x8 | x8 | x8 | x7 F | F6 |] %9
V:3
 F,2 | F,3 F, F,2 [F,C]2 | [F,C]3 [F,B,] [F,A,]2 [A,,F,]2 | [B,,F,]2 [B,,F,]2 [B,,F,]2 [B,,B,]2 | %4
 [F,A,]6 [F,A,]2 | [C,G,]3 [C,G,] [D,F,]2 [D,F,]2 | [A,,E,]3 [A,,E,] [B,,D,]2 [B,,B,]2 | %7
 [C,A,]2 [C,C]2 [C,B,]3 [F,A,] | [F,A,]6 |] %9
V:4
 F,2 | F,3 F, F,2 x2 | x8 | x8 | x8 | x8 | x8 | x8 | x6 |] %9

